(Exported by FreeCAD)
(Post Processor: linuxcnc_post)
(Output Time:2025-07-08 16:45:14.869370)
(begin preamble)
G17 G54 G40 G49 G80 G90
G21
(begin operation: Fixture)
(machine units: mm/min)
G54 
(finish operation: Fixture)
(begin operation: TC: Default Tool)
(machine units: mm/min)
(TC: Default Tool) 
M5
M6 T1 
G43 H1 
M3 S1 
(finish operation: TC: Default Tool)
(begin operation: Profile)
(machine units: mm/min)
(Profile) 
(Compensated Tool Path. Diameter: 5.0) 
G0 Z43.100 
G0 X120.762 Y283.790 
G0 Z41.100 
G1 X120.762 Y283.790 Z33.100 F25.400 
G1 X180.393 Y187.509 Z33.100 F25.400 
G2 X179.584 Y184.067 Z33.100 I-2.125 J-1.316 F25.400 
G1 X62.944 Y111.826 Z33.100 F25.400 
G1 X81.688 Y81.561 Z33.100 F25.400 
G2 X80.879 Y78.119 Z33.100 I-2.125 J-1.316 F25.400 
G1 X-48.684 Y-2.125 Z33.100 F25.400 
G2 X-50.000 Y-2.500 Z33.100 I-1.316 J2.125 F25.400 
G1 X-737.172 Y-2.500 Z33.100 F25.400 
G2 X-739.297 Y-1.316 Z33.100 I-0.000 J2.500 F25.400 
G1 X-841.275 Y163.337 Z33.100 F25.400 
G2 X-840.466 Y166.778 Z33.100 I2.125 J1.316 F25.400 
G1 X-592.137 Y320.580 Z33.100 F25.400 
G2 X-588.695 Y319.771 Z33.100 I1.316 J-2.125 F25.400 
G1 X-488.034 Y157.244 Z33.100 F25.400 
G1 X-241.830 Y309.730 Z33.100 F25.400 
G2 X-238.389 Y308.920 Z33.100 I1.316 J-2.125 F25.400 
G1 X-137.727 Y146.393 Z33.100 F25.400 
G1 X108.476 Y298.879 Z33.100 F25.400 
G2 X111.918 Y298.070 Z33.100 I1.316 J-2.125 F25.400 
G1 X120.762 Y283.790 Z33.100 F25.400 
G1 X120.762 Y283.790 Z28.100 F25.400 
G1 X180.393 Y187.509 Z28.100 F25.400 
G2 X179.584 Y184.067 Z28.100 I-2.125 J-1.316 F25.400 
G1 X62.944 Y111.826 Z28.100 F25.400 
G1 X81.688 Y81.561 Z28.100 F25.400 
G2 X80.879 Y78.119 Z28.100 I-2.125 J-1.316 F25.400 
G1 X-48.684 Y-2.125 Z28.100 F25.400 
G2 X-50.000 Y-2.500 Z28.100 I-1.316 J2.125 F25.400 
G1 X-737.172 Y-2.500 Z28.100 F25.400 
G2 X-739.297 Y-1.316 Z28.100 I-0.000 J2.500 F25.400 
G1 X-841.275 Y163.337 Z28.100 F25.400 
G2 X-840.466 Y166.778 Z28.100 I2.125 J1.316 F25.400 
G1 X-592.137 Y320.580 Z28.100 F25.400 
G2 X-588.695 Y319.771 Z28.100 I1.316 J-2.125 F25.400 
G1 X-488.034 Y157.244 Z28.100 F25.400 
G1 X-241.830 Y309.730 Z28.100 F25.400 
G2 X-238.389 Y308.920 Z28.100 I1.316 J-2.125 F25.400 
G1 X-137.727 Y146.393 Z28.100 F25.400 
G1 X108.476 Y298.879 Z28.100 F25.400 
G2 X111.918 Y298.070 Z28.100 I1.316 J-2.125 F25.400 
G1 X120.762 Y283.790 Z28.100 F25.400 
G1 X120.762 Y283.790 Z23.100 F25.400 
G1 X180.393 Y187.509 Z23.100 F25.400 
G2 X179.584 Y184.067 Z23.100 I-2.125 J-1.316 F25.400 
G1 X62.944 Y111.826 Z23.100 F25.400 
G1 X81.688 Y81.561 Z23.100 F25.400 
G2 X80.879 Y78.119 Z23.100 I-2.125 J-1.316 F25.400 
G1 X-48.684 Y-2.125 Z23.100 F25.400 
G2 X-50.000 Y-2.500 Z23.100 I-1.316 J2.125 F25.400 
G1 X-737.172 Y-2.500 Z23.100 F25.400 
G2 X-739.297 Y-1.316 Z23.100 I-0.000 J2.500 F25.400 
G1 X-841.275 Y163.337 Z23.100 F25.400 
G2 X-840.466 Y166.778 Z23.100 I2.125 J1.316 F25.400 
G1 X-592.137 Y320.580 Z23.100 F25.400 
G2 X-588.695 Y319.771 Z23.100 I1.316 J-2.125 F25.400 
G1 X-488.034 Y157.244 Z23.100 F25.400 
G1 X-241.830 Y309.730 Z23.100 F25.400 
G2 X-238.389 Y308.920 Z23.100 I1.316 J-2.125 F25.400 
G1 X-137.727 Y146.393 Z23.100 F25.400 
G1 X108.476 Y298.879 Z23.100 F25.400 
G2 X111.918 Y298.070 Z23.100 I1.316 J-2.125 F25.400 
G1 X120.762 Y283.790 Z23.100 F25.400 
G1 X120.762 Y283.790 Z18.100 F25.400 
G1 X180.393 Y187.509 Z18.100 F25.400 
G2 X179.584 Y184.067 Z18.100 I-2.125 J-1.316 F25.400 
G1 X62.944 Y111.826 Z18.100 F25.400 
G1 X81.688 Y81.561 Z18.100 F25.400 
G2 X80.879 Y78.119 Z18.100 I-2.125 J-1.316 F25.400 
G1 X-48.684 Y-2.125 Z18.100 F25.400 
G2 X-50.000 Y-2.500 Z18.100 I-1.316 J2.125 F25.400 
G1 X-737.172 Y-2.500 Z18.100 F25.400 
G2 X-739.297 Y-1.316 Z18.100 I-0.000 J2.500 F25.400 
G1 X-841.275 Y163.337 Z18.100 F25.400 
G2 X-840.466 Y166.778 Z18.100 I2.125 J1.316 F25.400 
G1 X-592.137 Y320.580 Z18.100 F25.400 
G2 X-588.695 Y319.771 Z18.100 I1.316 J-2.125 F25.400 
G1 X-488.034 Y157.244 Z18.100 F25.400 
G1 X-241.830 Y309.730 Z18.100 F25.400 
G2 X-238.389 Y308.920 Z18.100 I1.316 J-2.125 F25.400 
G1 X-137.727 Y146.393 Z18.100 F25.400 
G1 X108.476 Y298.879 Z18.100 F25.400 
G2 X111.918 Y298.070 Z18.100 I1.316 J-2.125 F25.400 
G1 X120.762 Y283.790 Z18.100 F25.400 
G1 X120.762 Y283.790 Z13.100 F25.400 
G1 X180.393 Y187.509 Z13.100 F25.400 
G2 X179.584 Y184.067 Z13.100 I-2.125 J-1.316 F25.400 
G1 X62.944 Y111.826 Z13.100 F25.400 
G1 X81.688 Y81.561 Z13.100 F25.400 
G2 X80.879 Y78.119 Z13.100 I-2.125 J-1.316 F25.400 
G1 X-48.684 Y-2.125 Z13.100 F25.400 
G2 X-50.000 Y-2.500 Z13.100 I-1.316 J2.125 F25.400 
G1 X-737.172 Y-2.500 Z13.100 F25.400 
G2 X-739.297 Y-1.316 Z13.100 I-0.000 J2.500 F25.400 
G1 X-841.275 Y163.337 Z13.100 F25.400 
G2 X-840.466 Y166.778 Z13.100 I2.125 J1.316 F25.400 
G1 X-592.137 Y320.580 Z13.100 F25.400 
G2 X-588.695 Y319.771 Z13.100 I1.316 J-2.125 F25.400 
G1 X-488.034 Y157.244 Z13.100 F25.400 
G1 X-241.830 Y309.730 Z13.100 F25.400 
G2 X-238.389 Y308.920 Z13.100 I1.316 J-2.125 F25.400 
G1 X-137.727 Y146.393 Z13.100 F25.400 
G1 X108.476 Y298.879 Z13.100 F25.400 
G2 X111.918 Y298.070 Z13.100 I1.316 J-2.125 F25.400 
G1 X120.762 Y283.790 Z13.100 F25.400 
G1 X120.762 Y283.790 Z8.100 F25.400 
G1 X180.393 Y187.509 Z8.100 F25.400 
G2 X179.584 Y184.067 Z8.100 I-2.125 J-1.316 F25.400 
G1 X62.944 Y111.826 Z8.100 F25.400 
G1 X81.688 Y81.561 Z8.100 F25.400 
G2 X80.879 Y78.119 Z8.100 I-2.125 J-1.316 F25.400 
G1 X-48.684 Y-2.125 Z8.100 F25.400 
G2 X-50.000 Y-2.500 Z8.100 I-1.316 J2.125 F25.400 
G1 X-737.172 Y-2.500 Z8.100 F25.400 
G2 X-739.297 Y-1.316 Z8.100 I-0.000 J2.500 F25.400 
G1 X-841.275 Y163.337 Z8.100 F25.400 
G2 X-840.466 Y166.778 Z8.100 I2.125 J1.316 F25.400 
G1 X-592.137 Y320.580 Z8.100 F25.400 
G2 X-588.695 Y319.771 Z8.100 I1.316 J-2.125 F25.400 
G1 X-488.034 Y157.244 Z8.100 F25.400 
G1 X-241.830 Y309.730 Z8.100 F25.400 
G2 X-238.389 Y308.920 Z8.100 I1.316 J-2.125 F25.400 
G1 X-137.727 Y146.393 Z8.100 F25.400 
G1 X108.476 Y298.879 Z8.100 F25.400 
G2 X111.918 Y298.070 Z8.100 I1.316 J-2.125 F25.400 
G1 X120.762 Y283.790 Z8.100 F25.400 
G1 X120.762 Y283.790 Z3.100 F25.400 
G1 X180.393 Y187.509 Z3.100 F25.400 
G2 X179.584 Y184.067 Z3.100 I-2.125 J-1.316 F25.400 
G1 X62.944 Y111.826 Z3.100 F25.400 
G1 X81.688 Y81.561 Z3.100 F25.400 
G2 X80.879 Y78.119 Z3.100 I-2.125 J-1.316 F25.400 
G1 X-48.684 Y-2.125 Z3.100 F25.400 
G2 X-50.000 Y-2.500 Z3.100 I-1.316 J2.125 F25.400 
G1 X-737.172 Y-2.500 Z3.100 F25.400 
G2 X-739.297 Y-1.316 Z3.100 I-0.000 J2.500 F25.400 
G1 X-841.275 Y163.337 Z3.100 F25.400 
G2 X-840.466 Y166.778 Z3.100 I2.125 J1.316 F25.400 
G1 X-592.137 Y320.580 Z3.100 F25.400 
G2 X-588.695 Y319.771 Z3.100 I1.316 J-2.125 F25.400 
G1 X-488.034 Y157.244 Z3.100 F25.400 
G1 X-241.830 Y309.730 Z3.100 F25.400 
G2 X-238.389 Y308.920 Z3.100 I1.316 J-2.125 F25.400 
G1 X-137.727 Y146.393 Z3.100 F25.400 
G1 X108.476 Y298.879 Z3.100 F25.400 
G2 X111.918 Y298.070 Z3.100 I1.316 J-2.125 F25.400 
G1 X120.762 Y283.790 Z3.100 F25.400 
G1 X120.762 Y283.790 Z0.000 F25.400 
G1 X180.393 Y187.509 Z0.000 F25.400 
G2 X179.584 Y184.067 Z0.000 I-2.125 J-1.316 F25.400 
G1 X62.944 Y111.826 Z0.000 F25.400 
G1 X81.688 Y81.561 Z0.000 F25.400 
G2 X80.879 Y78.119 Z0.000 I-2.125 J-1.316 F25.400 
G1 X-48.684 Y-2.125 Z0.000 F25.400 
G2 X-50.000 Y-2.500 Z0.000 I-1.316 J2.125 F25.400 
G1 X-737.172 Y-2.500 Z0.000 F25.400 
G2 X-739.297 Y-1.316 Z0.000 I-0.000 J2.500 F25.400 
G1 X-841.275 Y163.337 Z0.000 F25.400 
G2 X-840.466 Y166.778 Z0.000 I2.125 J1.316 F25.400 
G1 X-592.137 Y320.580 Z0.000 F25.400 
G2 X-588.695 Y319.771 Z0.000 I1.316 J-2.125 F25.400 
G1 X-488.034 Y157.244 Z0.000 F25.400 
G1 X-241.830 Y309.730 Z0.000 F25.400 
G2 X-238.389 Y308.920 Z0.000 I1.316 J-2.125 F25.400 
G1 X-137.727 Y146.393 Z0.000 F25.400 
G1 X108.476 Y298.879 Z0.000 F25.400 
G2 X111.918 Y298.070 Z0.000 I1.316 J-2.125 F25.400 
G1 X120.762 Y283.790 Z0.000 F25.400 
G0 Z43.100 
G0 Z43.100 
(finish operation: Profile)
(begin postamble)
M05
G17 G54 G90 G80 G40
M2
