(Exported by FreeCAD)
(Post Processor: linuxcnc_post)
(Output Time:2025-07-09 21:21:48.752569)
(begin preamble)
G17 G54 G40 G49 G80 G90
G21
(begin operation: Fixture)
(machine units: mm/min)
G54 
(finish operation: Fixture)
(begin operation: TC: Default Tool)
(machine units: mm/min)
(TC: Default Tool) 
M5
M6 T1 
G43 H1 
(finish operation: TC: Default Tool)
(begin operation: Job_profile)
(machine units: mm/min)
(Job_profile) 
(Compensated Tool Path. Diameter: 5.0) 
G0 Z44.100 
G0 X5170.066 Y317.717 
G0 Z42.100 
G1 X5170.066 Y317.717 Z34.100 
G1 X5241.659 Y271.482 Z34.100 
G2 X5242.403 Y268.026 Z34.100 I-1.356 J-2.100 
G1 X5068.435 Y-1.358 Z34.100 
G2 X5066.334 Y-2.502 Z34.100 I-2.100 J1.356 
G1 X349.482 Y-2.500 Z34.100 
G2 X348.125 Y-2.100 Z34.100 I0.000 J2.500 
G1 X-3.940 Y225.264 Z34.100 
G2 X-4.684 Y228.721 Z34.100 I1.356 J2.100 
G1 X86.537 Y369.974 Z34.100 
G2 X89.994 Y370.718 Z34.100 I2.100 J-1.356 
G1 X333.273 Y213.608 Z34.100 
G1 X436.986 Y374.205 Z34.100 
G2 X440.443 Y374.948 Z34.100 I2.100 J-1.356 
G1 X683.722 Y217.838 Z34.100 
G1 X787.435 Y378.435 Z34.100 
G2 X790.892 Y379.179 Z34.100 I2.100 J-1.356 
G1 X1034.171 Y222.069 Z34.100 
G1 X1137.884 Y382.666 Z34.100 
G2 X1141.341 Y383.410 Z34.100 I2.100 J-1.356 
G1 X1384.620 Y226.300 Z34.100 
G1 X1488.333 Y386.897 Z34.100 
G2 X1491.790 Y387.641 Z34.100 I2.100 J-1.356 
G1 X1735.069 Y230.531 Z34.100 
G1 X1838.782 Y391.128 Z34.100 
G2 X1842.239 Y391.871 Z34.100 I2.100 J-1.356 
G1 X2085.518 Y234.761 Z34.100 
G1 X2189.231 Y395.358 Z34.100 
G2 X2192.688 Y396.102 Z34.100 I2.100 J-1.356 
G1 X2435.967 Y238.992 Z34.100 
G1 X2539.680 Y399.589 Z34.100 
G2 X2543.137 Y400.333 Z34.100 I2.100 J-1.356 
G1 X2786.416 Y243.223 Z34.100 
G1 X2890.129 Y403.820 Z34.100 
G2 X2893.586 Y404.564 Z34.100 I2.100 J-1.356 
G1 X3136.865 Y247.454 Z34.100 
G1 X3240.578 Y408.051 Z34.100 
G2 X3244.035 Y408.794 Z34.100 I2.100 J-1.356 
G1 X3487.314 Y251.684 Z34.100 
G1 X3591.027 Y412.281 Z34.100 
G2 X3594.484 Y413.025 Z34.100 I2.100 J-1.356 
G1 X3837.763 Y255.915 Z34.100 
G1 X3941.477 Y416.512 Z34.100 
G2 X3944.933 Y417.256 Z34.100 I2.100 J-1.356 
G1 X4188.212 Y260.146 Z34.100 
G1 X4291.926 Y420.743 Z34.100 
G2 X4295.382 Y421.487 Z34.100 I2.100 J-1.356 
G1 X4538.661 Y264.377 Z34.100 
G1 X4642.375 Y424.974 Z34.100 
G2 X4645.831 Y425.717 Z34.100 I2.100 J-1.356 
G1 X4889.110 Y268.608 Z34.100 
G1 X4992.824 Y429.204 Z34.100 
G2 X4996.280 Y429.948 Z34.100 I2.100 J-1.356 
G1 X5170.066 Y317.717 Z34.100 
G1 X5170.066 Y317.717 Z29.100 
G1 X5241.659 Y271.482 Z29.100 
G2 X5242.403 Y268.026 Z29.100 I-1.356 J-2.100 
G1 X5068.435 Y-1.358 Z29.100 
G2 X5066.334 Y-2.502 Z29.100 I-2.100 J1.356 
G1 X349.482 Y-2.500 Z29.100 
G2 X348.125 Y-2.100 Z29.100 I0.000 J2.500 
G1 X-3.940 Y225.264 Z29.100 
G2 X-4.684 Y228.721 Z29.100 I1.356 J2.100 
G1 X86.537 Y369.974 Z29.100 
G2 X89.994 Y370.718 Z29.100 I2.100 J-1.356 
G1 X333.273 Y213.608 Z29.100 
G1 X436.986 Y374.205 Z29.100 
G2 X440.443 Y374.948 Z29.100 I2.100 J-1.356 
G1 X683.722 Y217.838 Z29.100 
G1 X787.435 Y378.435 Z29.100 
G2 X790.892 Y379.179 Z29.100 I2.100 J-1.356 
G1 X1034.171 Y222.069 Z29.100 
G1 X1137.884 Y382.666 Z29.100 
G2 X1141.341 Y383.410 Z29.100 I2.100 J-1.356 
G1 X1384.620 Y226.300 Z29.100 
G1 X1488.333 Y386.897 Z29.100 
G2 X1491.790 Y387.641 Z29.100 I2.100 J-1.356 
G1 X1735.069 Y230.531 Z29.100 
G1 X1838.782 Y391.128 Z29.100 
G2 X1842.239 Y391.871 Z29.100 I2.100 J-1.356 
G1 X2085.518 Y234.761 Z29.100 
G1 X2189.231 Y395.358 Z29.100 
G2 X2192.688 Y396.102 Z29.100 I2.100 J-1.356 
G1 X2435.967 Y238.992 Z29.100 
G1 X2539.680 Y399.589 Z29.100 
G2 X2543.137 Y400.333 Z29.100 I2.100 J-1.356 
G1 X2786.416 Y243.223 Z29.100 
G1 X2890.129 Y403.820 Z29.100 
G2 X2893.586 Y404.564 Z29.100 I2.100 J-1.356 
G1 X3136.865 Y247.454 Z29.100 
G1 X3240.578 Y408.051 Z29.100 
G2 X3244.035 Y408.794 Z29.100 I2.100 J-1.356 
G1 X3487.314 Y251.684 Z29.100 
G1 X3591.027 Y412.281 Z29.100 
G2 X3594.484 Y413.025 Z29.100 I2.100 J-1.356 
G1 X3837.763 Y255.915 Z29.100 
G1 X3941.477 Y416.512 Z29.100 
G2 X3944.933 Y417.256 Z29.100 I2.100 J-1.356 
G1 X4188.212 Y260.146 Z29.100 
G1 X4291.926 Y420.743 Z29.100 
G2 X4295.382 Y421.487 Z29.100 I2.100 J-1.356 
G1 X4538.661 Y264.377 Z29.100 
G1 X4642.375 Y424.974 Z29.100 
G2 X4645.831 Y425.717 Z29.100 I2.100 J-1.356 
G1 X4889.110 Y268.608 Z29.100 
G1 X4992.824 Y429.204 Z29.100 
G2 X4996.280 Y429.948 Z29.100 I2.100 J-1.356 
G1 X5170.066 Y317.717 Z29.100 
G1 X5170.066 Y317.717 Z24.100 
G1 X5241.659 Y271.482 Z24.100 
G2 X5242.403 Y268.026 Z24.100 I-1.356 J-2.100 
G1 X5068.435 Y-1.358 Z24.100 
G2 X5066.334 Y-2.502 Z24.100 I-2.100 J1.356 
G1 X349.482 Y-2.500 Z24.100 
G2 X348.125 Y-2.100 Z24.100 I0.000 J2.500 
G1 X-3.940 Y225.264 Z24.100 
G2 X-4.684 Y228.721 Z24.100 I1.356 J2.100 
G1 X86.537 Y369.974 Z24.100 
G2 X89.994 Y370.718 Z24.100 I2.100 J-1.356 
G1 X333.273 Y213.608 Z24.100 
G1 X436.986 Y374.205 Z24.100 
G2 X440.443 Y374.948 Z24.100 I2.100 J-1.356 
G1 X683.722 Y217.838 Z24.100 
G1 X787.435 Y378.435 Z24.100 
G2 X790.892 Y379.179 Z24.100 I2.100 J-1.356 
G1 X1034.171 Y222.069 Z24.100 
G1 X1137.884 Y382.666 Z24.100 
G2 X1141.341 Y383.410 Z24.100 I2.100 J-1.356 
G1 X1384.620 Y226.300 Z24.100 
G1 X1488.333 Y386.897 Z24.100 
G2 X1491.790 Y387.641 Z24.100 I2.100 J-1.356 
G1 X1735.069 Y230.531 Z24.100 
G1 X1838.782 Y391.128 Z24.100 
G2 X1842.239 Y391.871 Z24.100 I2.100 J-1.356 
G1 X2085.518 Y234.761 Z24.100 
G1 X2189.231 Y395.358 Z24.100 
G2 X2192.688 Y396.102 Z24.100 I2.100 J-1.356 
G1 X2435.967 Y238.992 Z24.100 
G1 X2539.680 Y399.589 Z24.100 
G2 X2543.137 Y400.333 Z24.100 I2.100 J-1.356 
G1 X2786.416 Y243.223 Z24.100 
G1 X2890.129 Y403.820 Z24.100 
G2 X2893.586 Y404.564 Z24.100 I2.100 J-1.356 
G1 X3136.865 Y247.454 Z24.100 
G1 X3240.578 Y408.051 Z24.100 
G2 X3244.035 Y408.794 Z24.100 I2.100 J-1.356 
G1 X3487.314 Y251.684 Z24.100 
G1 X3591.027 Y412.281 Z24.100 
G2 X3594.484 Y413.025 Z24.100 I2.100 J-1.356 
G1 X3837.763 Y255.915 Z24.100 
G1 X3941.477 Y416.512 Z24.100 
G2 X3944.933 Y417.256 Z24.100 I2.100 J-1.356 
G1 X4188.212 Y260.146 Z24.100 
G1 X4291.926 Y420.743 Z24.100 
G2 X4295.382 Y421.487 Z24.100 I2.100 J-1.356 
G1 X4538.661 Y264.377 Z24.100 
G1 X4642.375 Y424.974 Z24.100 
G2 X4645.831 Y425.717 Z24.100 I2.100 J-1.356 
G1 X4889.110 Y268.608 Z24.100 
G1 X4992.824 Y429.204 Z24.100 
G2 X4996.280 Y429.948 Z24.100 I2.100 J-1.356 
G1 X5170.066 Y317.717 Z24.100 
G1 X5170.066 Y317.717 Z19.100 
G1 X5241.659 Y271.482 Z19.100 
G2 X5242.403 Y268.026 Z19.100 I-1.356 J-2.100 
G1 X5068.435 Y-1.358 Z19.100 
G2 X5066.334 Y-2.502 Z19.100 I-2.100 J1.356 
G1 X349.482 Y-2.500 Z19.100 
G2 X348.125 Y-2.100 Z19.100 I0.000 J2.500 
G1 X-3.940 Y225.264 Z19.100 
G2 X-4.684 Y228.721 Z19.100 I1.356 J2.100 
G1 X86.537 Y369.974 Z19.100 
G2 X89.994 Y370.718 Z19.100 I2.100 J-1.356 
G1 X333.273 Y213.608 Z19.100 
G1 X436.986 Y374.205 Z19.100 
G2 X440.443 Y374.948 Z19.100 I2.100 J-1.356 
G1 X683.722 Y217.838 Z19.100 
G1 X787.435 Y378.435 Z19.100 
G2 X790.892 Y379.179 Z19.100 I2.100 J-1.356 
G1 X1034.171 Y222.069 Z19.100 
G1 X1137.884 Y382.666 Z19.100 
G2 X1141.341 Y383.410 Z19.100 I2.100 J-1.356 
G1 X1384.620 Y226.300 Z19.100 
G1 X1488.333 Y386.897 Z19.100 
G2 X1491.790 Y387.641 Z19.100 I2.100 J-1.356 
G1 X1735.069 Y230.531 Z19.100 
G1 X1838.782 Y391.128 Z19.100 
G2 X1842.239 Y391.871 Z19.100 I2.100 J-1.356 
G1 X2085.518 Y234.761 Z19.100 
G1 X2189.231 Y395.358 Z19.100 
G2 X2192.688 Y396.102 Z19.100 I2.100 J-1.356 
G1 X2435.967 Y238.992 Z19.100 
G1 X2539.680 Y399.589 Z19.100 
G2 X2543.137 Y400.333 Z19.100 I2.100 J-1.356 
G1 X2786.416 Y243.223 Z19.100 
G1 X2890.129 Y403.820 Z19.100 
G2 X2893.586 Y404.564 Z19.100 I2.100 J-1.356 
G1 X3136.865 Y247.454 Z19.100 
G1 X3240.578 Y408.051 Z19.100 
G2 X3244.035 Y408.794 Z19.100 I2.100 J-1.356 
G1 X3487.314 Y251.684 Z19.100 
G1 X3591.027 Y412.281 Z19.100 
G2 X3594.484 Y413.025 Z19.100 I2.100 J-1.356 
G1 X3837.763 Y255.915 Z19.100 
G1 X3941.477 Y416.512 Z19.100 
G2 X3944.933 Y417.256 Z19.100 I2.100 J-1.356 
G1 X4188.212 Y260.146 Z19.100 
G1 X4291.926 Y420.743 Z19.100 
G2 X4295.382 Y421.487 Z19.100 I2.100 J-1.356 
G1 X4538.661 Y264.377 Z19.100 
G1 X4642.375 Y424.974 Z19.100 
G2 X4645.831 Y425.717 Z19.100 I2.100 J-1.356 
G1 X4889.110 Y268.608 Z19.100 
G1 X4992.824 Y429.204 Z19.100 
G2 X4996.280 Y429.948 Z19.100 I2.100 J-1.356 
G1 X5170.066 Y317.717 Z19.100 
G1 X5170.066 Y317.717 Z14.100 
G1 X5241.659 Y271.482 Z14.100 
G2 X5242.403 Y268.026 Z14.100 I-1.356 J-2.100 
G1 X5068.435 Y-1.358 Z14.100 
G2 X5066.334 Y-2.502 Z14.100 I-2.100 J1.356 
G1 X349.482 Y-2.500 Z14.100 
G2 X348.125 Y-2.100 Z14.100 I0.000 J2.500 
G1 X-3.940 Y225.264 Z14.100 
G2 X-4.684 Y228.721 Z14.100 I1.356 J2.100 
G1 X86.537 Y369.974 Z14.100 
G2 X89.994 Y370.718 Z14.100 I2.100 J-1.356 
G1 X333.273 Y213.608 Z14.100 
G1 X436.986 Y374.205 Z14.100 
G2 X440.443 Y374.948 Z14.100 I2.100 J-1.356 
G1 X683.722 Y217.838 Z14.100 
G1 X787.435 Y378.435 Z14.100 
G2 X790.892 Y379.179 Z14.100 I2.100 J-1.356 
G1 X1034.171 Y222.069 Z14.100 
G1 X1137.884 Y382.666 Z14.100 
G2 X1141.341 Y383.410 Z14.100 I2.100 J-1.356 
G1 X1384.620 Y226.300 Z14.100 
G1 X1488.333 Y386.897 Z14.100 
G2 X1491.790 Y387.641 Z14.100 I2.100 J-1.356 
G1 X1735.069 Y230.531 Z14.100 
G1 X1838.782 Y391.128 Z14.100 
G2 X1842.239 Y391.871 Z14.100 I2.100 J-1.356 
G1 X2085.518 Y234.761 Z14.100 
G1 X2189.231 Y395.358 Z14.100 
G2 X2192.688 Y396.102 Z14.100 I2.100 J-1.356 
G1 X2435.967 Y238.992 Z14.100 
G1 X2539.680 Y399.589 Z14.100 
G2 X2543.137 Y400.333 Z14.100 I2.100 J-1.356 
G1 X2786.416 Y243.223 Z14.100 
G1 X2890.129 Y403.820 Z14.100 
G2 X2893.586 Y404.564 Z14.100 I2.100 J-1.356 
G1 X3136.865 Y247.454 Z14.100 
G1 X3240.578 Y408.051 Z14.100 
G2 X3244.035 Y408.794 Z14.100 I2.100 J-1.356 
G1 X3487.314 Y251.684 Z14.100 
G1 X3591.027 Y412.281 Z14.100 
G2 X3594.484 Y413.025 Z14.100 I2.100 J-1.356 
G1 X3837.763 Y255.915 Z14.100 
G1 X3941.477 Y416.512 Z14.100 
G2 X3944.933 Y417.256 Z14.100 I2.100 J-1.356 
G1 X4188.212 Y260.146 Z14.100 
G1 X4291.926 Y420.743 Z14.100 
G2 X4295.382 Y421.487 Z14.100 I2.100 J-1.356 
G1 X4538.661 Y264.377 Z14.100 
G1 X4642.375 Y424.974 Z14.100 
G2 X4645.831 Y425.717 Z14.100 I2.100 J-1.356 
G1 X4889.110 Y268.608 Z14.100 
G1 X4992.824 Y429.204 Z14.100 
G2 X4996.280 Y429.948 Z14.100 I2.100 J-1.356 
G1 X5170.066 Y317.717 Z14.100 
G1 X5170.066 Y317.717 Z9.100 
G1 X5241.659 Y271.482 Z9.100 
G2 X5242.403 Y268.026 Z9.100 I-1.356 J-2.100 
G1 X5068.435 Y-1.358 Z9.100 
G2 X5066.334 Y-2.502 Z9.100 I-2.100 J1.356 
G1 X349.482 Y-2.500 Z9.100 
G2 X348.125 Y-2.100 Z9.100 I0.000 J2.500 
G1 X-3.940 Y225.264 Z9.100 
G2 X-4.684 Y228.721 Z9.100 I1.356 J2.100 
G1 X86.537 Y369.974 Z9.100 
G2 X89.994 Y370.718 Z9.100 I2.100 J-1.356 
G1 X333.273 Y213.608 Z9.100 
G1 X436.986 Y374.205 Z9.100 
G2 X440.443 Y374.948 Z9.100 I2.100 J-1.356 
G1 X683.722 Y217.838 Z9.100 
G1 X787.435 Y378.435 Z9.100 
G2 X790.892 Y379.179 Z9.100 I2.100 J-1.356 
G1 X1034.171 Y222.069 Z9.100 
G1 X1137.884 Y382.666 Z9.100 
G2 X1141.341 Y383.410 Z9.100 I2.100 J-1.356 
G1 X1384.620 Y226.300 Z9.100 
G1 X1488.333 Y386.897 Z9.100 
G2 X1491.790 Y387.641 Z9.100 I2.100 J-1.356 
G1 X1735.069 Y230.531 Z9.100 
G1 X1838.782 Y391.128 Z9.100 
G2 X1842.239 Y391.871 Z9.100 I2.100 J-1.356 
G1 X2085.518 Y234.761 Z9.100 
G1 X2189.231 Y395.358 Z9.100 
G2 X2192.688 Y396.102 Z9.100 I2.100 J-1.356 
G1 X2435.967 Y238.992 Z9.100 
G1 X2539.680 Y399.589 Z9.100 
G2 X2543.137 Y400.333 Z9.100 I2.100 J-1.356 
G1 X2786.416 Y243.223 Z9.100 
G1 X2890.129 Y403.820 Z9.100 
G2 X2893.586 Y404.564 Z9.100 I2.100 J-1.356 
G1 X3136.865 Y247.454 Z9.100 
G1 X3240.578 Y408.051 Z9.100 
G2 X3244.035 Y408.794 Z9.100 I2.100 J-1.356 
G1 X3487.314 Y251.684 Z9.100 
G1 X3591.027 Y412.281 Z9.100 
G2 X3594.484 Y413.025 Z9.100 I2.100 J-1.356 
G1 X3837.763 Y255.915 Z9.100 
G1 X3941.477 Y416.512 Z9.100 
G2 X3944.933 Y417.256 Z9.100 I2.100 J-1.356 
G1 X4188.212 Y260.146 Z9.100 
G1 X4291.926 Y420.743 Z9.100 
G2 X4295.382 Y421.487 Z9.100 I2.100 J-1.356 
G1 X4538.661 Y264.377 Z9.100 
G1 X4642.375 Y424.974 Z9.100 
G2 X4645.831 Y425.717 Z9.100 I2.100 J-1.356 
G1 X4889.110 Y268.608 Z9.100 
G1 X4992.824 Y429.204 Z9.100 
G2 X4996.280 Y429.948 Z9.100 I2.100 J-1.356 
G1 X5170.066 Y317.717 Z9.100 
G1 X5170.066 Y317.717 Z4.100 
G1 X5241.659 Y271.482 Z4.100 
G2 X5242.403 Y268.026 Z4.100 I-1.356 J-2.100 
G1 X5068.435 Y-1.358 Z4.100 
G2 X5066.334 Y-2.502 Z4.100 I-2.100 J1.356 
G1 X349.482 Y-2.500 Z4.100 
G2 X348.125 Y-2.100 Z4.100 I0.000 J2.500 
G1 X-3.940 Y225.264 Z4.100 
G2 X-4.684 Y228.721 Z4.100 I1.356 J2.100 
G1 X86.537 Y369.974 Z4.100 
G2 X89.994 Y370.718 Z4.100 I2.100 J-1.356 
G1 X333.273 Y213.608 Z4.100 
G1 X436.986 Y374.205 Z4.100 
G2 X440.443 Y374.948 Z4.100 I2.100 J-1.356 
G1 X683.722 Y217.838 Z4.100 
G1 X787.435 Y378.435 Z4.100 
G2 X790.892 Y379.179 Z4.100 I2.100 J-1.356 
G1 X1034.171 Y222.069 Z4.100 
G1 X1137.884 Y382.666 Z4.100 
G2 X1141.341 Y383.410 Z4.100 I2.100 J-1.356 
G1 X1384.620 Y226.300 Z4.100 
G1 X1488.333 Y386.897 Z4.100 
G2 X1491.790 Y387.641 Z4.100 I2.100 J-1.356 
G1 X1735.069 Y230.531 Z4.100 
G1 X1838.782 Y391.128 Z4.100 
G2 X1842.239 Y391.871 Z4.100 I2.100 J-1.356 
G1 X2085.518 Y234.761 Z4.100 
G1 X2189.231 Y395.358 Z4.100 
G2 X2192.688 Y396.102 Z4.100 I2.100 J-1.356 
G1 X2435.967 Y238.992 Z4.100 
G1 X2539.680 Y399.589 Z4.100 
G2 X2543.137 Y400.333 Z4.100 I2.100 J-1.356 
G1 X2786.416 Y243.223 Z4.100 
G1 X2890.129 Y403.820 Z4.100 
G2 X2893.586 Y404.564 Z4.100 I2.100 J-1.356 
G1 X3136.865 Y247.454 Z4.100 
G1 X3240.578 Y408.051 Z4.100 
G2 X3244.035 Y408.794 Z4.100 I2.100 J-1.356 
G1 X3487.314 Y251.684 Z4.100 
G1 X3591.027 Y412.281 Z4.100 
G2 X3594.484 Y413.025 Z4.100 I2.100 J-1.356 
G1 X3837.763 Y255.915 Z4.100 
G1 X3941.477 Y416.512 Z4.100 
G2 X3944.933 Y417.256 Z4.100 I2.100 J-1.356 
G1 X4188.212 Y260.146 Z4.100 
G1 X4291.926 Y420.743 Z4.100 
G2 X4295.382 Y421.487 Z4.100 I2.100 J-1.356 
G1 X4538.661 Y264.377 Z4.100 
G1 X4642.375 Y424.974 Z4.100 
G2 X4645.831 Y425.717 Z4.100 I2.100 J-1.356 
G1 X4889.110 Y268.608 Z4.100 
G1 X4992.824 Y429.204 Z4.100 
G2 X4996.280 Y429.948 Z4.100 I2.100 J-1.356 
G1 X5170.066 Y317.717 Z4.100 
G1 X5170.066 Y317.717 Z-0.900 
G1 X5241.659 Y271.482 Z-0.900 
G2 X5242.403 Y268.026 Z-0.900 I-1.356 J-2.100 
G1 X5068.435 Y-1.358 Z-0.900 
G2 X5066.334 Y-2.502 Z-0.900 I-2.100 J1.356 
G1 X349.482 Y-2.500 Z-0.900 
G2 X348.125 Y-2.100 Z-0.900 I0.000 J2.500 
G1 X-3.940 Y225.264 Z-0.900 
G2 X-4.684 Y228.721 Z-0.900 I1.356 J2.100 
G1 X86.537 Y369.974 Z-0.900 
G2 X89.994 Y370.718 Z-0.900 I2.100 J-1.356 
G1 X333.273 Y213.608 Z-0.900 
G1 X436.986 Y374.205 Z-0.900 
G2 X440.443 Y374.948 Z-0.900 I2.100 J-1.356 
G1 X683.722 Y217.838 Z-0.900 
G1 X787.435 Y378.435 Z-0.900 
G2 X790.892 Y379.179 Z-0.900 I2.100 J-1.356 
G1 X1034.171 Y222.069 Z-0.900 
G1 X1137.884 Y382.666 Z-0.900 
G2 X1141.341 Y383.410 Z-0.900 I2.100 J-1.356 
G1 X1384.620 Y226.300 Z-0.900 
G1 X1488.333 Y386.897 Z-0.900 
G2 X1491.790 Y387.641 Z-0.900 I2.100 J-1.356 
G1 X1735.069 Y230.531 Z-0.900 
G1 X1838.782 Y391.128 Z-0.900 
G2 X1842.239 Y391.871 Z-0.900 I2.100 J-1.356 
G1 X2085.518 Y234.761 Z-0.900 
G1 X2189.231 Y395.358 Z-0.900 
G2 X2192.688 Y396.102 Z-0.900 I2.100 J-1.356 
G1 X2435.967 Y238.992 Z-0.900 
G1 X2539.680 Y399.589 Z-0.900 
G2 X2543.137 Y400.333 Z-0.900 I2.100 J-1.356 
G1 X2786.416 Y243.223 Z-0.900 
G1 X2890.129 Y403.820 Z-0.900 
G2 X2893.586 Y404.564 Z-0.900 I2.100 J-1.356 
G1 X3136.865 Y247.454 Z-0.900 
G1 X3240.578 Y408.051 Z-0.900 
G2 X3244.035 Y408.794 Z-0.900 I2.100 J-1.356 
G1 X3487.314 Y251.684 Z-0.900 
G1 X3591.027 Y412.281 Z-0.900 
G2 X3594.484 Y413.025 Z-0.900 I2.100 J-1.356 
G1 X3837.763 Y255.915 Z-0.900 
G1 X3941.477 Y416.512 Z-0.900 
G2 X3944.933 Y417.256 Z-0.900 I2.100 J-1.356 
G1 X4188.212 Y260.146 Z-0.900 
G1 X4291.926 Y420.743 Z-0.900 
G2 X4295.382 Y421.487 Z-0.900 I2.100 J-1.356 
G1 X4538.661 Y264.377 Z-0.900 
G1 X4642.375 Y424.974 Z-0.900 
G2 X4645.831 Y425.717 Z-0.900 I2.100 J-1.356 
G1 X4889.110 Y268.608 Z-0.900 
G1 X4992.824 Y429.204 Z-0.900 
G2 X4996.280 Y429.948 Z-0.900 I2.100 J-1.356 
G1 X5170.066 Y317.717 Z-0.900 
G1 X5170.066 Y317.717 Z-1.000 
G1 X5241.659 Y271.482 Z-1.000 
G2 X5242.403 Y268.026 Z-1.000 I-1.356 J-2.100 
G1 X5068.435 Y-1.358 Z-1.000 
G2 X5066.334 Y-2.502 Z-1.000 I-2.100 J1.356 
G1 X349.482 Y-2.500 Z-1.000 
G2 X348.125 Y-2.100 Z-1.000 I0.000 J2.500 
G1 X-3.940 Y225.264 Z-1.000 
G2 X-4.684 Y228.721 Z-1.000 I1.356 J2.100 
G1 X86.537 Y369.974 Z-1.000 
G2 X89.994 Y370.718 Z-1.000 I2.100 J-1.356 
G1 X333.273 Y213.608 Z-1.000 
G1 X436.986 Y374.205 Z-1.000 
G2 X440.443 Y374.948 Z-1.000 I2.100 J-1.356 
G1 X683.722 Y217.838 Z-1.000 
G1 X787.435 Y378.435 Z-1.000 
G2 X790.892 Y379.179 Z-1.000 I2.100 J-1.356 
G1 X1034.171 Y222.069 Z-1.000 
G1 X1137.884 Y382.666 Z-1.000 
G2 X1141.341 Y383.410 Z-1.000 I2.100 J-1.356 
G1 X1384.620 Y226.300 Z-1.000 
G1 X1488.333 Y386.897 Z-1.000 
G2 X1491.790 Y387.641 Z-1.000 I2.100 J-1.356 
G1 X1735.069 Y230.531 Z-1.000 
G1 X1838.782 Y391.128 Z-1.000 
G2 X1842.239 Y391.871 Z-1.000 I2.100 J-1.356 
G1 X2085.518 Y234.761 Z-1.000 
G1 X2189.231 Y395.358 Z-1.000 
G2 X2192.688 Y396.102 Z-1.000 I2.100 J-1.356 
G1 X2435.967 Y238.992 Z-1.000 
G1 X2539.680 Y399.589 Z-1.000 
G2 X2543.137 Y400.333 Z-1.000 I2.100 J-1.356 
G1 X2786.416 Y243.223 Z-1.000 
G1 X2890.129 Y403.820 Z-1.000 
G2 X2893.586 Y404.564 Z-1.000 I2.100 J-1.356 
G1 X3136.865 Y247.454 Z-1.000 
G1 X3240.578 Y408.051 Z-1.000 
G2 X3244.035 Y408.794 Z-1.000 I2.100 J-1.356 
G1 X3487.314 Y251.684 Z-1.000 
G1 X3591.027 Y412.281 Z-1.000 
G2 X3594.484 Y413.025 Z-1.000 I2.100 J-1.356 
G1 X3837.763 Y255.915 Z-1.000 
G1 X3941.477 Y416.512 Z-1.000 
G2 X3944.933 Y417.256 Z-1.000 I2.100 J-1.356 
G1 X4188.212 Y260.146 Z-1.000 
G1 X4291.926 Y420.743 Z-1.000 
G2 X4295.382 Y421.487 Z-1.000 I2.100 J-1.356 
G1 X4538.661 Y264.377 Z-1.000 
G1 X4642.375 Y424.974 Z-1.000 
G2 X4645.831 Y425.717 Z-1.000 I2.100 J-1.356 
G1 X4889.110 Y268.608 Z-1.000 
G1 X4992.824 Y429.204 Z-1.000 
G2 X4996.280 Y429.948 Z-1.000 I2.100 J-1.356 
G1 X5170.066 Y317.717 Z-1.000 
G0 Z44.100 
G0 Z44.100 
(finish operation: Job_profile)
(begin postamble)
M05
G17 G54 G90 G80 G40
M2
